X:1
T: The Diamond
C:
R:Reel
Q: 232
K:Em
M:4/4
L:1/8
|:B|GE GB cA dc|BG B^c dA FD|EG FB, CE DG,|A,C B,^D EE EB|
GE GB cA dc|BG B^c dA FD|EG FB, CE DG,|A,C B,^D EE E:|
|:f|ge f^d e2 B^c|dB AG FA dF|GB dB Ac ec|Be ^df ee eB|
eg fB ce dG|Ac BE ^DE FB,|EG FA GB Ac|BG AF EE E:|
